!!!OTL: Mann und Weib.
!!!OTL-incipit:ALS EINST DER MENSCH IM PARADIES
!!!COM: G. W. Fink.
!!!ARE: Europa, Mitteleuropa, Deutschland
!!!SCT: F0094
!!!TXL: @@DE
!!!YEM: Copyright 1995, estate of Helmut Schaffrath.
**kern	**text
*ICvox	*
*clefG2	*
*M4/4	*
*met(c)	*
*k[]	*
*C:	*
!LO:TX:a:t=Marſchhaft.	!
!LO:TX:a:t=P:only higher voice encoded:problem	!
{8g	1._Als
=1	=1
4cc	einſt
4ee	der
4.dd	Menſch
8cc	im
=2	=2
8b/	Pa-
8cc	-ra-
4dd	-dies
4r}	.
{4ee	vom
=3	=3
8.dd	Wei-
16dd	-be
8dd	ſich
8cc	ver-
4b	-füh-
4a	-ren
=4	=4
4g	ließ,
4g	ſprach
4g	Gott,
8r}	.
{8b/	ſprach
=5	=5
4.dd	Gott:
8dd	Jm
4.dd	Schweiß
8ee	des
=6	=6
4ff'	An-
4ee'	-ge-
8dd}	-ſichts
{8ff	iß
8ee	nun
8dd	dein
=7	=7
4cc/	Brot,
8r	.
8dd/	du
8.b/	Tau-
16b/	-ge-
4cc/	-nichts.
=8	=8
2r	.
4r	.
8r}	.
==	==
!!!AGN: Scherz -, Spott - Lied
!!!ONB: ESAC (Essen Associative Code) Database: FINK
!!!AMT: simple quadruple
!!!AIN: vox
!!!EED: Helmut Schaffrath
!!!EEV: 1.0
!!!GTL: Volkslieder
!!!source: Musikalischer Hausschatz der Deutschen. Eine Sammlung von über 1000 Liedern und Gesängen mit Singstimmen und Klavierbegleitung. Leipzig, Litterarisches Verlags-Haus.
!!!page: 57
!!!URL-scan: https://www.digitale-sammlungen.de/en/view/bsb11144622?page=64,65
!!!ENC: Anna Maria Matuszewska
!!!EEV: 2024/07/25
*-	*-
